!!!OTL: Verschlafener Jaeger Ein Jaeger ging spazieren,
!!!ARE: Europa, Osteuropa, Tschechoslowakei, Sudetenland
!!!ARD: Europa%Osteuropa%Ceska Republika@Sudetenland#
!!!ARL: 49.75/15.00#
!!!YOR: 7, S. 220
!!    1943 gedruckt in Kassel
!!!SCT: Q0152S
!!!YEM: Copyright 1995, estate of Helmut Schaffrath.
**kern
*ICvox
*Ivox
*M4/4
*k[f#]
*G:
{4d
=1
4b
4b
4dd
4b
=2
2a
4cc}
{4d
=3
4cc
4cc
4ee
4cc
=4
2b
4dd}
{4g
=5
2ee
4ee
4ee
=6
2dd
4b}
{4dd
=7
4dd
4cc
4ee
4dd
=8
2b
4r}
==
!!!AGN: Ballade, Verfuehrung, verlorene Ehre
!! Zugehoerigkeit zu dieser Balladengruppe ungeklaert.
!!!ONB: ESAC (Essen Associative Code) Database: BALLADE
!!!AMT: simple quadruple
!!!AIN: vox
!!!EED: Helmut Schaffrath
!!!EEV: 1.0
*-
!!!title: @{OTL} [@{SCT}]
